symbols/web/60fps_select/materialsymbolssharp/60fps_select_wght500_20px.svg

<svg xmlns="http://www.w3.org/2000/svg" height="20" width="20"><path d="M3.083 11.75v-8.5h6.146v1.917h-4.25v1.375h4.25v5.208Zm1.896-1.917h2.354V8.458H4.979Zm5.792 1.917v-8.5h6.167v8.5Zm1.896-1.917h2.375V5.167h-2.375Zm-10.438 8.5v-4.166h1.833v4.166Zm3.583 0v-4.166h1.813v4.166Zm3.563 0v-4.166h1.833v4.166Zm3.583 0v-4.166h4.813v4.166Z"/></svg>

<svg xmlns="http://www.w3.org/2000/svg" height="20" width="20"><path d="M3.083 11.75V3.25H9.229V5.167H4.979V6.542H9.229V11.75ZM4.979 9.833H7.333V8.458H4.979ZM10.771 11.75V3.25H16.938V11.75ZM12.667 9.833H15.042V5.167H12.667ZM2.229 18.333V14.167H4.062V18.333ZM5.812 18.333V14.167H7.625V18.333ZM9.375 18.333V14.167H11.208V18.333ZM12.958 18.333V14.167H17.771V18.333Z"/></svg>
